X:344
T:The wind that shakes the barley 1
R:Reel
O:Ireland
B:Kerr's First p4
B:Roche 199
B:O'Neill's 1518
S:My arrangement from various sources- pretty much Roche...
Z:Transcription, arrangement, chords:Mike Long
M:C|
L:1/8
K:D
B|:"D"A2AB AFED|"G"B2BA BcdB|\
"D"A2AB AFED|[1 "A"gfed "G"BcdB:|[2 "G"gfed "A"Bcde|]\
"D"f2fd "G"g2ge|
"D"f2fd "A"Bcde|"D"f2fd "G"g2fg|"A"afed Bcde|\
"D"f2fd "G"g2ge|"D"f2fd "A"edBA|"D"defg "A"afba|"G"gfed BcdB|]
